src/Pure-Dark/16/symbolic/status/media-playlist-repeat-symbolic-rtl.svg

<?xml version="1.0" encoding="UTF-8" standalone="no"?>
<svg
   version="1.1"
   viewBox="0 0 16 16"
   id="svg2"
   sodipodi:docname="media-playlist-repeat-symbolic-rtl.svg"
   inkscape:version="1.4.2 (ebf0e940d0, 2025-05-08)"
   xmlns:inkscape="http://www.inkscape.org/namespaces/inkscape"
   xmlns:sodipodi="http://sodipodi.sourceforge.net/DTD/sodipodi-0.dtd"
   xmlns="http://www.w3.org/2000/svg"
   xmlns:svg="http://www.w3.org/2000/svg">
  <sodipodi:namedview
     id="namedview2"
     pagecolor="#ffffff"
     bordercolor="#000000"
     borderopacity="0.25"
     inkscape:showpageshadow="2"
     inkscape:pageopacity="0.0"
     inkscape:pagecheckerboard="0"
     inkscape:deskcolor="#d1d1d1"
     inkscape:zoom="49.6875"
     inkscape:cx="8"
     inkscape:cy="8"
     inkscape:window-width="1920"
     inkscape:window-height="1010"
     inkscape:window-x="0"
     inkscape:window-y="0"
     inkscape:window-maximized="1"
     inkscape:current-layer="svg2" />
  <defs
     id="defs1">
    <style
       id="current-color-scheme"
       type="text/css">.ColorScheme-Text {
        color:#f2f2f2;
      }</style>
  </defs>
  <path
     id="path1"
     d="m 12,2 c 1.108,0 2,0.892 2,2 V 7.0390625 C 13.935165,7.0282255 13.876604,7 13.808594,7 H 13 V 4 C 13,3.446 12.554,3 12,3 H 2.9999998 L 5.5351558,5.5351562 4.8281248,6.2421875 1.2929688,2.7070312 1.9999998,2 Z M 1.9999998,8.9609375 C 2.0648348,8.9717745 2.1233958,9 2.1914058,9 h 0.808594 v 3 c 0,0.554 0.446,1 1,1 H 13 L 10.464844,10.464844 11.171875,9.7578125 14.707031,13.292969 14,14 H 3.9999998 c -1.108,0 -2,-0.892 -2,-2 z"
     style="fill:currentColor"
     class="ColorScheme-Text" />
</svg>

<?xml version="1.0" encoding="UTF-8" standalone="no"?>
<svg
   version="1.1"
   viewBox="0 0 16 16"
   id="svg7"
   sodipodi:docname="media-playlist-repeat-symbolic-rtl.svg"
   inkscape:version="1.2.1 (9c6d41e410, 2022-07-14)"
   xmlns:inkscape="http://www.inkscape.org/namespaces/inkscape"
   xmlns:sodipodi="http://sodipodi.sourceforge.net/DTD/sodipodi-0.dtd"
   xmlns="http://www.w3.org/2000/svg"
   xmlns:svg="http://www.w3.org/2000/svg">
  <sodipodi:namedview
     id="namedview9"
     pagecolor="#ffffff"
     bordercolor="#000000"
     borderopacity="0.25"
     inkscape:showpageshadow="2"
     inkscape:pageopacity="0.0"
     inkscape:pagecheckerboard="0"
     inkscape:deskcolor="#d1d1d1"
     showgrid="false"
     inkscape:zoom="51.5"
     inkscape:cx="8"
     inkscape:cy="8"
     inkscape:window-width="1920"
     inkscape:window-height="1012"
     inkscape:window-x="0"
     inkscape:window-y="0"
     inkscape:window-maximized="1"
     inkscape:current-layer="svg7" />
  <defs
     id="defs3">
    <style
       id="current-color-scheme"
       type="text/css">.ColorScheme-Text {
        color:#f2f2f2;
      }</style>
  </defs>
  <path
     d="m 12,2 c 1.108,0 2,0.892 2,2 V 7.0391 C 13.935165,7.028263 13.8766,7.000038 13.80859,7.000038 H 13 v -3 c 0,-0.554 -0.446,-1 -1,-1 H 3 l 2.5352,2.5352 -0.70703,0.70703 -3.5352,-3.5352 L 2,2.000038 H 12 Z M 2,8.9609 C 2.064835,8.971737 2.1234,8.999962 2.19141,8.999962 H 3 v 3 c 0,0.554 0.446,1 1,1 h 9 l -2.5352,-2.5352 0.70703,-0.70703 3.5352,3.5352 L 14,13.999962 H 4 c -1.108,0 -2,-0.892 -2,-2 v -3.0391 z"
     fill="#f2f2f2"
     id="path5" />
</svg>
